demoApp/www/icon/chat.svg

<svg id="Layer_1" xmlns="http://www.w3.org/2000/svg" viewBox="0 0 23 33" width="23" height="33"><style>.st1{fill:#6f6d6d}</style><font horiz-adv-x="2048"><font-face font-family="ArialMT" units-per-em="2048" underline-position="-217" underline-thickness="150"/><glyph unicode="C" horiz-adv-x="1479" d="M1204 514l194-49c-41-159-114-281-219-364C1073 17 944-25 791-25 633-25 505 7 406 72c-99 64-175 157-226 279-52 122-78 253-78 393 0 153 29 286 88 400 58 113 141 200 249 259 107 59 226 88 355 88 147 0 270-37 370-112s170-180 209-315l-191-45c-34 107-83 184-148 233s-146 73-244 73c-113 0-207-27-282-81-76-54-129-126-160-217s-46-185-46-282c0-125 18-233 55-326 36-93 92-163 169-209s160-69 249-69c109 0 201 31 276 94s126 156 153 279z"/><glyph unicode="a" horiz-adv-x="1139" d="M828 131C761 74 697 34 636 11c-62-23-128-35-199-35-117 0-206 29-269 86S74 191 74 280c0 52 12 100 36 143 23 43 54 77 93 103 38 26 81 46 129 59 35 9 89 18 160 27 145 17 252 38 321 62 1 25 1 40 1 47 0 73-17 125-51 155-46 41-114 61-205 61-85 0-147-15-187-44-41-30-71-83-90-158l-176 24c16 75 42 136 79 183 37 46 90 82 159 107s150 37 241 37 164-11 221-32 98-48 125-80c27-33 45-74 56-123 6-31 9-86 9-166V445c0-167 4-273 12-317 7-45 22-87 45-128H864c-19 37-31 81-36 131m-15 402c-65-27-163-49-294-68-74-11-126-23-157-36s-54-33-71-58c-17-26-25-55-25-86 0-48 18-88 55-120 36-32 89-48 159-48 69 0 131 15 185 46 54 30 94 71 119 124 19 41 29 101 29 180z"/><glyph unicode="h" horiz-adv-x="1139" d="M135 0v1466h180V940c84 97 190 146 318 146 79 0 147-15 205-46s100-74 125-129 37-134 37-238V0H820v673c0 90-19 156-58 197s-95 61-166 61c-53 0-103-14-150-41-47-28-81-66-101-113s-30-113-30-196V0z"/><glyph unicode="t" horiz-adv-x="569" d="M528 161L554 2c-51-11-96-16-136-16-65 0-116 10-152 31s-61 48-76 82c-15 33-22 104-22 212v611H36v140h132v263l179 108v-371h181V922H347V301c0-51 3-84 10-99 6-15 16-26 31-35 14-9 34-13 61-13 20 0 46 2 79 7z"/></font><font horiz-adv-x="2048"><font-face font-family="TeamsAssets-Regular" units-per-em="2048" underline-position="-119" underline-thickness="119"/><glyph unicode="" horiz-adv-x="2048" d="M1863 1864c18-18 32-38 42-61 9-23 14-48 14-74V133c0-37-13-68-39-94-12-12-26-21-43-28s-34-11-52-11c-40 0-74 16-103 49l-291 325-8 3c-110-10-230-15-360-15-280 0-527 28-740 85-45 12-83 36-112 72-29 35-44 77-44 125v1085c0 26 5 51 15 74s24 44 42 61c18 18 39 32 62 42 23 9 47 14 73 14h1408c25 0 50-5 74-14 23-10 44-24 62-42M639 1027V896h512v131m-512 382v-129h768v129z"/></font><g id="Priority-Msg-_x2F_-Img-Annotation"><g id="_x31_-0-Chat" transform="translate(-101 -627)"><g id="Navigation_x2F_Tab-Purple" transform="translate(75 618)"><path id="Container" fill="none" d="M0 0h75v50H0z"/><text transform="translate(25.903 41)" class="st1" font-size="10" font-family="ArialMT">Chat</text><text transform="translate(26.5 30)" class="st1" font-size="22" font-family="TeamsAssets-Regular"></text></g></g></g></svg>

<?xml version="1.0" encoding="utf-8"?>
<!-- Generator: Adobe Illustrator 21.0.0, SVG Export Plug-In . SVG Version: 6.00 Build 0)  -->
<svg version="1.1" id="Layer_1" xmlns="http://www.w3.org/2000/svg" xmlns:xlink="http://www.w3.org/1999/xlink" x="0px" y="0px"
	 viewBox="0 0 23 33" style="enable-background:new 0 0 23 33;" xml:space="preserve">
<style type="text/css">
	.st0{fill:none;}
	.st1{fill:#6F6D6D;}
	.st2{font-family:'ArialMT';}
	.st3{font-size:10px;}
	.st4{font-family:'TeamsAssets-Regular';}
	.st5{font-size:22px;}
</style>
<font horiz-adv-x="2048">
<!-- Arial is a trademark of The Monotype Corporation in the United States and/or other countries. -->
<!-- Copyright: Copyright 2018 Adobe System Incorporated. All rights reserved. -->
<font-face font-family="ArialMT" units-per-em="2048" underline-position="-217" underline-thickness="150"/>
<missing-glyph horiz-adv-x="1536" d="M256,0l0,1280l1024,0l0,-1280M288,32l960,0l0,1216l-960,0z"/>
<glyph unicode="C" horiz-adv-x="1479" d="M1204,514l194,-49C1357,306 1284,184 1179,101C1073,17 944,-25 791,-25C633,-25 505,7 406,72C307,136 231,229 180,351C128,473 102,604 102,744C102,897 131,1030 190,1144C248,1257 331,1344 439,1403C546,1462 665,1491 794,1491C941,1491 1064,1454 1164,1379C1264,1304 1334,1199 1373,1064l-191,-45C1148,1126 1099,1203 1034,1252C969,1301 888,1325 790,1325C677,1325 583,1298 508,1244C432,1190 379,1118 348,1027C317,936 302,842 302,745C302,620 320,512 357,419C393,326 449,256 526,210C603,164 686,141 775,141C884,141 976,172 1051,235C1126,298 1177,391 1204,514z"/>
<glyph unicode="a" horiz-adv-x="1139" d="M828,131C761,74 697,34 636,11C574,-12 508,-24 437,-24C320,-24 231,5 168,62C105,119 74,191 74,280C74,332 86,380 110,423C133,466 164,500 203,526C241,552 284,572 332,585C367,594 421,603 492,612C637,629 744,650 813,674C814,699 814,714 814,721C814,794 797,846 763,876C717,917 649,937 558,937C473,937 411,922 371,893C330,863 300,810 281,735l-176,24C121,834 147,895 184,942C221,988 274,1024 343,1049C412,1074 493,1086 584,1086C675,1086 748,1075 805,1054C862,1033 903,1006 930,974C957,941 975,900 986,851C992,820 995,765 995,685l0,-240C995,278 999,172 1007,128C1014,83 1029,41 1052,0l-188,0C845,37 833,81 828,131M813,533C748,506 650,484 519,465C445,454 393,442 362,429C331,416 308,396 291,371C274,345 266,316 266,285C266,237 284,197 321,165C357,133 410,117 480,117C549,117 611,132 665,163C719,193 759,234 784,287C803,328 813,388 813,467z"/>
<glyph unicode="h" horiz-adv-x="1139" d="M135,0l0,1466l180,0l0,-526C399,1037 505,1086 633,1086C712,1086 780,1071 838,1040C896,1009 938,966 963,911C988,856 1000,777 1000,673l0,-673l-180,0l0,673C820,763 801,829 762,870C723,911 667,931 596,931C543,931 493,917 446,890C399,862 365,824 345,777C325,730 315,664 315,581l0,-581z"/>
<glyph unicode="t" horiz-adv-x="569" d="M528,161l26,-159C503,-9 458,-14 418,-14C353,-14 302,-4 266,17C230,38 205,65 190,99C175,132 168,203 168,311l0,611l-132,0l0,140l132,0l0,263l179,108l0,-371l181,0l0,-140l-181,0l0,-621C347,250 350,217 357,202C363,187 373,176 388,167C402,158 422,154 449,154C469,154 495,156 528,161z"/>
</font>

	<font horiz-adv-x="2048">
<!-- Copyright (c) 2017 by Microsoft. All rights reserved. -->
<!-- Copyright: Copyright 2018 Adobe System Incorporated. All rights reserved. -->
<font-face font-family="TeamsAssets-Regular" units-per-em="2048" underline-position="-119" underline-thickness="119"/>
<missing-glyph horiz-adv-x="600"/>
<glyph unicode="&#xE340;" horiz-adv-x="2048" d="M1863,1864C1881,1846 1895,1826 1905,1803C1914,1780 1919,1755 1919,1729l0,-1596C1919,96 1906,65 1880,39C1868,27 1854,18 1837,11C1820,4 1803,0 1785,0C1745,0 1711,16 1682,49l-291,325l-8,3C1273,367 1153,362 1023,362C743,362 496,390 283,447C238,459 200,483 171,519C142,554 127,596 127,644l0,1085C127,1755 132,1780 142,1803C152,1826 166,1847 184,1864C202,1882 223,1896 246,1906C269,1915 293,1920 319,1920l1408,0C1752,1920 1777,1915 1801,1906C1824,1896 1845,1882 1863,1864M639,1027l0,-131l512,0l0,131M639,1409l0,-129l768,0l0,129z"/>
</font>

	<desc>Created with Sketch.</desc>
<g id="Priority-Msg-_x2F_-Img-Annotation">
	<g id="_x31_-0-Chat" transform="translate(-101.000000, -627.000000)">
		<g id="Navigation_x2F_Tab-Purple" transform="translate(75.000000, 618.000000)">
			<rect id="Container" class="st0" width="75" height="50"/>
			<text transform="matrix(1 0 0 1 25.9026 41)" class="st1 st2 st3">Chat</text>
			<text transform="matrix(1 0 0 1 26.5 30)" class="st1 st4 st5"></text>
		</g>
	</g>
</g>
</svg>
